X: 1589
T: Pür-lerze Olur
C: Tanburî Cemil Bey
O: Turkey
F: http://compmusic.upf.edu/node/140
N: muhayyer--sarki--senginsemai--pur-lerze--tanburi_cemil_bey
N: makam= muhayyer
N: form= sarki
N: usul= senginsemai = 6/4
M: 6/4
L: 1/16
K: C _2/4B ^3/4f  
Q: 1/4=63
%%MIDI tuningsystem comma53
g4 a4 bagf efga b3a c'2_1/4ba  | a3g =b2ag g3f f2ef agfe d4  | 
w:  Pür  ler ze  *  *  *  o *  *  *  lur   |  rû *  *  *  *  yi *  ni  *  *  gör  | 
_1/4b2c'4c'_2/4b b3a a2_1/4b2 a2g2 fgab  | \
w:  dük *  *  *  çe  *  ce *  nâ  | 
g3_1/4b a3g f3a g3f e3g fed2  | 
w:  nım   | 
f2g2 a2_7/8b2 d'^3/4c'ba g2f2 f3e egfe  | \
w:  ah  *  *  *  *  *  *  *  ce *  nâ  | 
e8 a3g fefg a8  | 
w:  nım   SAZ  | 
g4 a4 _bag^f g2a2 g2a4g=f  | ga_b4ba a3g g2=fe fefg e2d2  | 
w:  Her  an  se *  *  *  ni  *  gör  |  mek  *  *  *  *  di *  le *  *  rim   | 
c3d e2c2 d2e2 =f2a2 g2f2 e2d2  | c3e d3c B3d c3B A3c BAG2  | 
w:  rûh_ *  *  *  i  *  re *  vâ  |  nım   | 
B2c2 d2e2 g=fed c3B B3A AcBA  | A8 g3f edef g8  | 
w:  rûh_ *  *  *  i  *  *  *  re *  vâ  |  nım   SAZ  | 
f3a g4 g3f e2fg f2g2 =f2e2  | e3d d2e=f edc=B cBA^G A8  | 
w:  Tak *  dîs_ e *  de *  *  rek   |  sev *  *  *  *  me  *  *  *  se *  *  *  ni   | 
A3=B c2d2 e2=f2 e2d2 c3B A2e2  | ^d4 e4 =f4 ^f4 g8  | \
w:  mak *  *  *  sâd_ *  ı  *  câ  |  nım   | 
z2c'2 b2a2 a3g g2a2 agfe f2g2  | 
w:  mak *  *  sâd_ *  ı  *  câ  | 
f2g6 g3f =b2ag g8  | g4 a4 a2g2 _1/4b2ba a8  | \
w:  nım   *  SAZ  |  Tak dîs_ e *  de *  *  rek   | 
_1/4b2c'2 c'd'c'_2/4b b3a a3g f3e d4  | 
w:  sev *  *  *  *  *  me  *  se *  ni   | 
z2g4f2 g2f2 g2ac' =bag^f e4  | d4 e3d e2f2 g2a2 c'bag fed2  | 
w:  mak *  sâd_ *  ı  *  *  câ  |  nım   | 
^f2g2 a2_7/8b2 d'^3/4c'ba g3^3/4f f3e egfe  | \
w:  mak *  *  *  sâd_ *  *  *  ı  *  câ  | 
e8 a3g fefg a8  | 
w:  nım   SAZ  | 
g4 a4 _bag^f g2a2 g2a4g=f  | ga_b4ba a3g g2=fe fefg e2d2  | 
w:  Her  an  se *  *  *  ni  *  gör  |  mek  *  *  *  *  di *  le *  *  rim   | 
c3d e2c2 d2e2 =f2a2 g2f2 e2d2  | c3e d3c B3d c3B A3c BAG2  | 
w:  rûh_ *  *  *  i  *  re *  vâ  |  nım   | 
B2c2 d2e2 g=fed c3B B3A AcBA  | A8 |
w:  rûh_ *  *  *  i  *  *  *  re *  vâ  |  nım    | 


